X:585
T: Was die Gans hat (283), S. 597
N: T0473
O: Luxemburg
S: Singendes Volk, Esch-Alzette, 1937 posth.]
N: Hesperingen, fff Besch, 14.5.1934
R: ???]
M: 2/4
L: 1/16
K: G
D2 | G2G2G2G2 | G2FGA2D2 | B4B4 | A4z4 |
d2d2d2d2 | d2e2A2AB | c2c2c2c2 | B2d2G2
G2 | G2D2E2F2 | G4z2
G2 | G2D2E2F2 | G4z2
GG | c4c2c2 | B4B2B2 | A4B2A2 | G4B4 | d4z2
Bd | c4c2c2 | B4B2B2 | A4B2A2 | G4z2

@@@ Tune index: 8639
